svgs/thin/pump-soap.svg

<svg xmlns="http://www.w3.org/2000/svg" viewBox="0 0 384 512"><!-- Font Awesome Pro 6.0.0-alpha2 by @fontawesome - https://fontawesome.com License - https://fontawesome.com/license (Commercial License) --><path d="M145.25 254.984C119.141 287.672 88 331.938 88 357.25C88 394.062 120.297 424 160 424S232 394.062 232 357.25C232 331.938 200.86 287.672 174.75 254.984C167.625 246.109 152.375 246.109 145.25 254.984ZM160 408C129.125 408 104 385.234 104 357.25C104 341.578 124.094 307.094 157.75 264.984C158.453 264.094 159.563 264 160 264S161.547 264.094 162.25 264.984C195.907 307.094 216 341.578 216 357.25C216 385.234 190.875 408 160 408ZM235.631 160H84.369C51.268 160 23.629 185.24 20.631 218.205L0.268 442.205C-3.138 479.686 26.371 512 64.006 512H255.994C293.629 512 323.139 479.686 319.733 442.205L299.369 218.205C296.371 185.24 268.733 160 235.631 160ZM291.44 480.369C282.233 490.449 269.647 496 255.994 496H64.006C50.356 496 37.768 490.449 28.563 480.369C19.356 470.289 14.967 457.25 16.203 443.654L36.567 219.654C38.828 194.768 59.379 176 84.369 176H235.631C260.619 176 281.172 194.768 283.436 219.654L303.799 443.652C305.034 457.248 300.645 470.287 291.44 480.369ZM365.657 114.344L319.032 67.719C311.469 60.156 301.438 56 290.75 56H224V32C224 14.326 209.674 0 192 0H128C110.328 0 96 14.326 96 32V120C96 124.418 99.582 128 104 128S112 124.418 112 120V32C112 23.164 119.164 16 128 16H192C200.838 16 208 23.164 208 32V120C208 124.418 211.582 128 216 128S224 124.418 224 120V72H290.75C297.063 72 303.25 74.562 307.719 79.031L354.344 125.656C355.907 127.219 357.953 128 360 128S364.094 127.219 365.657 125.656C368.782 122.531 368.782 117.469 365.657 114.344Z"/></svg>

<svg xmlns="http://www.w3.org/2000/svg" viewBox="0 0 384 512"><!--! Font Awesome Pro 6.3.0 by @fontawesome - https://fontawesome.com License - https://fontawesome.com/license (Commercial License) Copyright 2023 Fonticons, Inc. --><path d="M145.3 254.1C119.1 287.7 88 331.9 88 357.3C88 394.1 120.3 424 160 424s72-29.94 72-66.75c0-25.31-31.14-69.58-57.25-102.3C167.6 246.1 152.4 246.1 145.3 254.1zM160 408c-30.88 0-56-22.77-56-50.75c0-15.67 20.09-50.16 53.75-92.27C158.5 264.1 159.6 264 160 264s1.547 .0938 2.25 .9844C195.9 307.1 216 341.6 216 357.3C216 385.2 190.9 408 160 408zM235.6 160H84.37C51.27 160 23.63 185.2 20.63 218.2l-20.36 224C-3.139 479.7 26.37 512 64.01 512h191.1c37.63 0 67.14-32.31 63.74-69.79l-20.36-224C296.4 185.2 268.7 160 235.6 160zM291.4 480.4C282.2 490.4 269.6 496 255.1 496H64.01c-13.65 0-26.24-5.551-35.44-15.63c-9.207-10.08-13.6-23.12-12.36-36.71l20.36-224C38.83 194.8 59.38 176 84.37 176h151.3c24.99 0 45.54 18.77 47.8 43.65l20.36 223.1C305 457.2 300.6 470.3 291.4 480.4zM365.7 114.3l-46.63-46.63C311.5 60.16 301.4 56 290.8 56H224L223.1 32c0-17.67-14.33-32-32-32H127.1c-17.67 0-32 14.33-32 32L96 120C96 124.4 99.58 128 104 128S112 124.4 112 120V32c0-8.836 7.164-16 16-16h64c8.838 0 16 7.164 16 16v88C208 124.4 211.6 128 216 128S224 124.4 224 120v-48h66.75c6.312 0 12.5 2.562 16.97 7.031l46.63 46.63C355.9 127.2 357.1 128 360 128s4.094-.7813 5.656-2.344C368.8 122.5 368.8 117.5 365.7 114.3z"/></svg>
